brandFactory_export/1.Light/Flecha arriba_1Light.svg

<?xml version="1.0" encoding="UTF-8"?>
<svg width="24px" height="24px" viewBox="0 0 24 24" version="1.1" xmlns="http://www.w3.org/2000/svg" xmlns:xlink="http://www.w3.org/1999/xlink">
    <title>1.Light/Flecha arriba_1Light</title>
    <g id="Symbols" stroke="none" stroke-width="1" fill="none" fill-rule="evenodd">
        <g id="1.Light/Flecha-arriba_1Light" fill="#5CB615" fill-rule="nonzero">
            <path d="M8.02352941,23.6907563 C7.28403361,23.6907563 6.7697479,23.5260504 6.41008403,23.1798319 C6.06386555,22.8436975 5.88907563,22.3596639 5.8789916,21.6941176 L5.8789916,21.687395 L5.88235294,13.405042 C5.88235294,13.2907563 5.80504202,13.1966387 5.70756303,13.1966387 L1.48571429,13.2235294 C0.857142857,13.2436975 0.295798319,12.9310924 0.087394958,12.4403361 C-0.11092437,11.9798319 0.0336134454,11.4588235 0.484033613,11.0184874 L11.2369748,0.336134454 C11.4453782,0.124369748 11.6470588,0.0201680672 11.8554622,0.0201680672 L11.8588235,0.0201680672 C12.0436975,0.0201680672 12.2151261,0.104201681 12.3697479,0.265546218 L23.0857143,11.0252101 C23.5394958,11.4588235 23.707563,12.0504202 23.512605,12.5310924 C23.3445378,12.9445378 22.9546218,13.189916 22.4638655,13.189916 L22.4436975,13.189916 L17.9092437,13.1966387 C17.8117647,13.1966387 17.7344538,13.2907563 17.7344538,13.405042 L17.7344538,21.6840336 C17.7445378,22.312605 17.5663866,22.8067227 17.2067227,23.1596639 C16.8336134,23.5260504 16.2722689,23.707563 15.5831933,23.687395 L8.1210084,23.687395 C8.0907563,23.687395 8.05714286,23.6907563 8.02352941,23.6907563 Z M6.58823529,21.6840336 C6.59495798,22.1478992 6.69915966,22.4705882 6.90420168,22.6689076 C7.13277311,22.8907563 7.52941176,22.9915966 8.11428571,22.9815126 L15.6033613,22.9815126 C15.9462185,22.9915966 16.4168067,22.9445378 16.712605,22.6554622 C16.9277311,22.4436975 17.0352941,22.1210084 17.0285714,21.6941176 L17.0285714,13.405042 C17.0285714,12.9008403 17.4252101,12.4907563 17.912605,12.4907563 L22.4504202,12.4840336 L22.4672269,12.4840336 C22.6621849,12.4840336 22.8,12.4067227 22.8605042,12.2655462 C22.9243697,12.1042017 22.897479,11.8184874 22.5983193,11.5361345 C22.594958,11.5327731 22.5915966,11.5327731 22.5915966,11.5294118 L11.8655462,0.759663866 L11.8588235,0.752941176 C11.8554622,0.746218487 11.8487395,0.742857143 11.8453782,0.739495798 C11.8252101,0.752941176 11.7882353,0.779831933 11.7411765,0.830252101 L11.7378151,0.833613445 L0.98487395,11.5226891 C0.847058824,11.6571429 0.635294118,11.9193277 0.739495798,12.1613445 C0.833613445,12.3798319 1.1394958,12.5277311 1.46890756,12.5142857 L1.4789916,12.5142857 L5.70756303,12.487395 C6.19495798,12.487395 6.59159664,12.897479 6.59159664,13.4016807 L6.58823529,21.6840336 L6.58823529,21.6840336 Z" id="Flecha-arriba_1Light"></path>
        </g>
    </g>
</svg>

<svg width="24" height="24" viewBox="0 0 24 24" xmlns="http://www.w3.org/2000/svg"><path d="M8.024 23.69c-.74 0-1.254-.164-1.614-.51-.346-.336-.52-.82-.531-1.486v-.007l.003-8.282c0-.114-.077-.208-.174-.208l-4.222.027c-.629.02-1.19-.293-1.399-.784-.198-.46-.053-.981.397-1.422L11.237.336c.208-.212.41-.316.618-.316h.004c.185 0 .356.084.51.246l10.717 10.76c.453.433.622 1.024.427 1.505-.168.414-.558.659-1.05.659h-.02l-4.534.007c-.097 0-.175.094-.175.208v8.279c.01.629-.168 1.123-.527 1.476-.373.366-.935.548-1.624.527H8.121c-.03 0-.064.004-.097.004zm-1.436-2.006c.007.464.111.787.316.985.229.222.625.323 1.21.313h7.49c.342.01.813-.037 1.109-.327.215-.211.322-.534.316-.96v-8.29c0-.504.396-.914.884-.914l4.537-.007h.017c.195 0 .333-.077.394-.218.063-.162.036-.448-.263-.73-.003-.003-.006-.003-.006-.007L11.866.76l-.007-.006c-.004-.007-.01-.01-.014-.014a.588.588 0 00-.104.091l-.003.004L.985 11.523c-.138.134-.35.396-.246.638.095.219.4.367.73.353h.01l4.229-.027c.487 0 .884.41.884.915l-.004 8.282z" fill="#5CB615" fill-rule="nonzero"/></svg>
